public/avatar/body/213.svg

<svg xmlns:xlink="http://www.w3.org/1999/xlink" height="82" width="84.85" xmlns="http://www.w3.org/2000/svg"><g transform="translate(37.4 42.25)"><use height="38" transform="translate(-11.95 -17.45)" width="32.05" xlink:href="#a"/><use height="38.95" transform="translate(-12.45 -17.95)" width="33.05" xlink:href="#b"/><use height="26.6" transform="translate(-15.4 -1.9)" width="39.65" xlink:href="#c"/></g><defs><path d="M27.35 7.4q2.15 4.15 3.55 8.75 1.45 4.7 1.15 9.5-.35 4.95-4.2 8.1-3.8 3.2-8.75 4.05l-2.6.2q-3.6 0-7.05-1.15-4.65-1.6-7.1-5.5Q-.2 27.4.05 23q.2-4.4 2-9.3Q3.85 8.75 7 5.05 10.1 1.3 14.7.1l1.8-.1q1.9.05 3.7.8 4.75 2.05 7.15 6.6" fill="#e19d9d" fill-rule="evenodd" transform="translate(-.05)" id="d"/><path d="M27.35 7.4Q24.95 2.85 20.2.8 17.55-.3 14.7.1 10.1 1.3 7 5.05q-3.15 3.7-4.95 8.65-1.8 4.9-2 9.3-.25 4.4 2.3 8.35 2.45 3.9 7.1 5.5 4.65 1.55 9.65.95 4.95-.85 8.75-4.05 3.85-3.15 4.2-8.1.3-4.8-1.15-9.5-1.4-4.6-3.55-8.75Z" fill="none" stroke="#000" stroke-linecap="round" stroke-linejoin="round" transform="translate(.45 .5)" id="e"/><use height="38" width="32.05" xlink:href="#d" id="a"/><use height="38.95" width="33.05" xlink:href="#e" id="b"/><g id="c"><path d="m21.65-1.55.3 1.45.05.95.2.7.7.25.75.2.5.65.1.8-.55 3.15-.15.3-.35.2H21q-.5.1-1.4 1.65l-.55 1.4v.1h-.15l-.5 1.2h.05q-.2.5-.1 1.15l.2.95.4 1.15-.05-.05.1.6.15.6.05.7.05 1.45-.1 2.55-.1.75v.65l-.05.45-.7.2v.05l-.9.25h-.05l-8.2 1.35-3.15.2-2.8.2-1.45.05H.45l-.6-.05-.45-.55-.45-.8-.05-.05-.2-.25q-.2-.35-.95-.2l-.95.05-4.1.35-2.05.1-.9-.05-.35-.35-.15-.3-.1-.75v-.35l.05-.4v-.05l-.05-.45v-1.35l-.05-.4v-.95l-.2-1.35-.15-.95.2-.6h.05l.4-.7.2-.9v-.05q.1-.85-.1-1.4l-.4-1.3-.35-.4h-.15l-.4-.4-.85-.9-1-.9-1.5-2.4-.25-.8.45-.65q1.1-.85 1.25-1.85l-.05-.5-.2-.4L-14 .2q.4-.95 1-1.25.45-.2 1.65.65.35.25.65 1.1l.8 1.75 1.1 1.4 1.5 1.25 1.05.8 1.6.65 4 .6L2.8 7l.45.1-.1 2.9h.05l-.05.25q-.1.5.05.5h.05L6.2 10l.3-1.1q.2-1.45.8-1.5l3.55-.6 2.45-1 .95-.45.9-.6 1.1-1.05 1.2-1.35.8-1.1.6-1.35.05-.25v-.2l.15-.2.4-.3.9-.55.8-.3q.35-.05.5.35" fill="#050505" fill-rule="evenodd" transform="translate(15.4 1.9)"/><path d="M21.05-.55q.15.8-.05 1.4L18.45 3.4l-1.3 1.3-1.75 1.4-.8.6-1 .4-1.8.85-2.8.9-2.05.5q-.65.85-.9.85l-.65-.05-.45-.15.1-.15.15-.4.25-1.7q0-.6.95-.95l3.85-1.75q2.95-.8 7.05-3.75l3.15-2.45q.45-.25.6.6M3.8 10.3l-.05.1-.85.1Q2.3 9.4 2 9.4q-1.45 0-3.45-.85l-4.4-2-3.35-2-2.05-1.4-.7-.8Q-13.3-.25-12.9-.4q.8-.25 3.3 1.9l1.55 1.15Q-5.85 4.1-2.5 5l4.65 1.7 1.2.35q.3.2 0 .95l.45 2.3" fill="#d10505" fill-rule="evenodd" transform="translate(15.4 1.9)"/><path d="m21.05-.7.2.55q.35.55.7 2.5l.9.45q.35.2.25.85l-.15.6-.05.55-.3 1q-.2.4-.8.3l-1-.2-.3.05q-1 2.9-1.15 3.95l-.95 3.85-.1.4-.05.45-.25 1.9.1 1.95-.1 1.8q-.1 1.05-.9 1.25l-1.85.5q-3.35 1.2-8.4 1.35l-4.25.15-1.85-.15q-.35-1.2-.85-1.5h-3.4l-3.5.2-1.65-.15q-.65-.25-.75-1l-.15-6.05-2.6-8.5-.1.05-.8.3-.6-.7-.4-.9q-.25-.55.25-.85l1-.75.35-.6-.15-.4-.5-2.2q.1-.9 1.95.7l2.2 2.05L-5.4 4.9l3.6 1.2 4.45 1.65.15 2.8 3.15-.1.3-2.7q.05-.4 5.7-2.3.7-.2 3.65-1.9l1.75-1.1 3.7-3.15" fill="#fff" fill-rule="evenodd" transform="translate(15.4 1.9)"/><path d="m9.4 10.35 1.15 1.8q.35.6 1 3.75.6 2.8.35 5.9l-.05 1.35-1.8.25-1.15.05-.7-.05q-.65-.45-1.05-.5h-1.6l-1.7-.45L1.7 22H-.6l-.6-.05-.55.05-.45-.1.05-.2-.05.15.1-.35-.1-.45-.05-1-.15-2.8.15-3q0-2.65 1.15-3.35 1.05-.7 4-.7h3.9l2.6.15" fill="#969696" fill-rule="evenodd" transform="translate(15.4 1.9)"/><path d="m10.85 12.3-.05 5.1.2 1.75.3 2.85.15 1-.05.05-13-1 .05-.2q.3-.35-.05-6.95l-.15-1.8-.05-1.3q0-1.15.5-1.25l3.75-.45 2.1-.15 4.15.15q1.2.1 1.75.5.4.35.4 1.7" fill="#d10505" fill-rule="evenodd" transform="translate(15.4 1.9)"/><path d="M9.4 10.65q.65.2.8 1.25l.1 1.75-.1 1.8.25 4 .2 1.95v.95l.05.35-.05.3h-.1l.05-.05-.75-.1-1.1.1-3.05.3-3.1.1-.8.05-.8-.15-.45-.45-.3-.45-.05-.25-.15-.25.05-.15-.3-1.1q-.15-1.7-.45-3.35l-.15-3.9.05-2.5 2.05-.1 3.9-.2h2.1l2.1.1" fill="#fff" fill-rule="evenodd" transform="translate(15.4 1.9)"/><path d="m2.85 11.75.45.25.4.4q.3.3.4.95v.55l-.15.65-.7.95-.85.35-1.6.05q-.75-.35-.75-1.35l.2-1.6-.35-.25-.15-.05h-.1l.2-.35.45-.4q.9-.45 1.6-.45.6 0 .95.3" fill="#7c7c7c" fill-rule="evenodd" transform="translate(15.4 1.9)"/><path d="M3.3 13.85q0 1.95-1.95 1.95T-.6 13.85q0-1.95 1.95-1.95t1.95 1.95" fill="#fff" fill-rule="evenodd" transform="translate(15.4 1.9)"/><path d="M18.7 15.75q0 1.95-1.95 1.95t-1.95-1.95q0-1.95 1.95-1.95t1.95 1.95Z" fill="none" stroke="#7c7c7c" stroke-linecap="round" stroke-linejoin="round" stroke-width=".25"/><path d="M.35 18.55h-.1l.25-.4.45-.35q.8-.45 1.55-.45l1 .25.45.3.4.35.35 1 .05.55-.15.6-.7.95-.9.4-1.6.05q-.7-.35-.7-1.35l.2-1.6-.4-.3H.35" fill="#7c7c7c" fill-rule="evenodd" transform="translate(15.4 1.9)"/><path d="M3.9 19.7q0 1.95-1.95 1.95T0 19.7q0-1.95 1.95-1.95T3.9 19.7" fill="#fff" fill-rule="evenodd" transform="translate(15.4 1.9)"/><path d="M19.3 21.6q0 1.95-1.95 1.95T15.4 21.6q0-1.95 1.95-1.95t1.95 1.95Z" fill="none" stroke="#7c7c7c" stroke-linecap="round" stroke-linejoin="round" stroke-width=".25"/><path d="m5.65 18.55.2-.4.45-.35 1.6-.45.95.25.45.3.4.35.4 1v.55l-.15.6-.7.95-.85.4-1.6.05q-.75-.35-.75-1.35l.2-1.6q0-.2-.35-.3h-.25" fill="#7c7c7c" fill-rule="evenodd" transform="translate(15.4 1.9)"/><path d="M9.3 19.7q0 1.95-1.95 1.95T5.4 19.7q0-1.95 1.95-1.95T9.3 19.7" fill="#fff" fill-rule="evenodd" transform="translate(15.4 1.9)"/><path d="M24.7 21.6q0 1.95-1.95 1.95T20.8 21.6q0-1.95 1.95-1.95t1.95 1.95Z" fill="none" stroke="#7c7c7c" stroke-linecap="round" stroke-linejoin="round" stroke-width=".25"/><path d="m9.7 12.25.4 1v.55l-.15.6-.7.95-.85.4-1.6.05q-.75-.35-.75-1.35l.2-1.6q0-.2-.35-.3h-.25l.2-.4.45-.35 1.6-.45.95.25.45.3.4.35" fill="#7c7c7c" fill-rule="evenodd" transform="translate(15.4 1.9)"/><path d="M9.3 13.7q0 1.95-1.95 1.95T5.4 13.7q0-1.95 1.95-1.95T9.3 13.7" fill="#fff" fill-rule="evenodd" transform="translate(15.4 1.9)"/><path d="M24.7 15.6q0 1.95-1.95 1.95T20.8 15.6q0-1.95 1.95-1.95t1.95 1.95Z" fill="none" stroke="#7c7c7c" stroke-linecap="round" stroke-linejoin="round" stroke-width=".25"/><path d="M22.1 5.15q.7.7.1 3.25-.3 1.2-2.55 3.7-.65.75-.65 2.15 0 1.7-.2 2.2-.1.2-.5.2-1.85 0-2.75-3.2-.45-1.5.15-3.9.25-1.2 1.6-3 1.2-1.5 2.1-1.65 2.1-.35 2.7.25m-28.15 4.4q.65 2.45.15 3.85-1.05 3.2-3.35 3.2l-.65-.2v-1.05l-.25-2.1-.45-1.3L-11.8 9l-.45-1.05.15-1.95.4-1.65.55-.1.8.35 2.3 1.9q1.55 1.65 2 3.05" fill="#bab9b9" fill-rule="evenodd" transform="translate(15.4 1.9)"/><path d="m.4 23.35-.2-.5-.25-.4-.15-.4q-.15-.2-.45-.2h-.3l-.25-.05.45-.15.25-.05.2-.05.3.2.35.3.35.6.35.35.8.1 7.45-.35 1.35-.3-.15.05.45.1.4.3h.05l-.35.35-6 .4-3.3.15-1.1-.1-.25-.35" fill="#d10505" fill-rule="evenodd" transform="translate(15.4 1.9)"/><path d="m21.4 1.6-1.35 1.45-1.9 1.8-3.4 2.1-3.1 1.35-5.5 1.5H6.1v-.1l.05-.2V9l.2.1h.25l.9-.1 1.25-.3.7-.3.85-.25 3.3-1.4L17.7 4l1.4-1.2 1.5-1.55.35-.6.25-.35.1.35.15.4.05.3-.15.25h.05M1.95 10.1l-4-.65-1.1-.4-1.25-.65L-7.55 7q-.9-.55-1.4-.75l-4.3-2.3.55-.5.1-.4-.2-.35.15.05.35.4.9.8 3.75 2.3 1.9.9 3.8 1.4 4.3 1h.2v.25l.05.3h-.65" fill="#969696" fill-rule="evenodd" transform="translate(15.4 1.9)"/></g></defs></svg>

<?xml version="1.0" encoding="UTF-8" standalone="no"?>
<svg xmlns:xlink="http://www.w3.org/1999/xlink" height="82.0px" width="84.85px" xmlns="http://www.w3.org/2000/svg">
  <g transform="matrix(1.0, 0.0, 0.0, 1.0, 37.4, 42.25)">
    <use height="38.0" transform="matrix(1.0, 0.0, 0.0, 1.0, -11.95, -17.45)" width="32.05" xlink:href="#sprite0"/>
    <use height="38.95" transform="matrix(1.0, 0.0, 0.0, 1.0, -12.45, -17.95)" width="33.05" xlink:href="#sprite1"/>
    <use height="26.6" transform="matrix(1.0, 0.0, 0.0, 1.0, -15.4, -1.9)" width="39.65" xlink:href="#shape2"/>
  </g>
  <defs>
    <g id="sprite0" transform="matrix(1.0, 0.0, 0.0, 1.0, -0.05, 0.0)">
      <use height="38.0" transform="matrix(1.0, 0.0, 0.0, 1.0, 0.05, 0.0)" width="32.05" xlink:href="#shape0"/>
    </g>
    <g id="shape0" transform="matrix(1.0, 0.0, 0.0, 1.0, -0.05, 0.0)">
      <path d="M27.35 7.4 Q29.5 11.55 30.9 16.15 32.35 20.85 32.05 25.65 31.7 30.6 27.85 33.75 24.05 36.95 19.1 37.8 L16.5 38.0 Q12.9 38.0 9.45 36.85 4.8 35.25 2.35 31.35 -0.2 27.4 0.05 23.0 0.25 18.6 2.05 13.7 3.85 8.75 7.0 5.05 10.1 1.3 14.7 0.1 L16.5 0.0 Q18.4 0.05 20.2 0.8 24.95 2.85 27.35 7.4" fill="#e19d9d" fill-rule="evenodd" stroke="none"/>
    </g>
    <g id="sprite1" transform="matrix(1.0, 0.0, 0.0, 1.0, 0.45, 0.5)">
      <use height="38.95" transform="matrix(1.0, 0.0, 0.0, 1.0, -0.45, -0.5)" width="33.05" xlink:href="#shape1"/>
    </g>
    <g id="shape1" transform="matrix(1.0, 0.0, 0.0, 1.0, 0.45, 0.5)">
      <path d="M27.35 7.4 Q24.95 2.85 20.2 0.8 17.55 -0.3 14.7 0.1 10.1 1.3 7.0 5.05 3.85 8.75 2.05 13.7 0.25 18.6 0.05 23.0 -0.2 27.4 2.35 31.35 4.8 35.25 9.45 36.85 14.1 38.4 19.1 37.8 24.05 36.95 27.85 33.75 31.7 30.6 32.05 25.65 32.35 20.85 30.9 16.15 29.5 11.55 27.35 7.4 Z" fill="none" stroke="#000000" stroke-linecap="round" stroke-linejoin="round" stroke-width="1.0"/>
    </g>
    <g id="shape2" transform="matrix(1.0, 0.0, 0.0, 1.0, 15.4, 1.9)">
      <path d="M21.65 -1.55 L21.95 -0.1 22.0 0.85 22.2 1.55 22.9 1.8 23.65 2.0 24.15 2.65 24.25 3.45 23.7 6.6 23.55 6.9 23.2 7.1 21.0 7.1 Q20.5 7.2 19.6 8.75 L19.05 10.15 19.05 10.25 18.9 10.25 18.4 11.45 18.45 11.45 Q18.25 11.95 18.35 12.6 L18.55 13.55 18.95 14.7 18.9 14.65 19.0 15.25 19.15 15.85 19.2 16.55 19.25 18.0 19.15 20.55 19.05 21.3 19.05 21.95 19.0 22.4 18.3 22.6 18.3 22.65 17.4 22.9 17.35 22.9 9.15 24.25 6.0 24.45 3.2 24.65 1.75 24.7 0.45 24.7 -0.15 24.65 -0.6 24.1 -1.05 23.3 -1.1 23.25 -1.3 23.0 Q-1.5 22.65 -2.25 22.8 L-3.2 22.85 -7.3 23.2 -9.35 23.3 -10.25 23.25 -10.6 22.9 -10.75 22.6 -10.85 21.85 -10.85 21.5 -10.8 21.1 -10.8 21.05 -10.85 20.6 -10.85 19.25 -10.9 18.85 -10.9 17.9 -11.1 16.55 -11.25 15.6 -11.05 15.0 -11.0 15.0 -10.6 14.3 -10.4 13.4 -10.4 13.35 Q-10.3 12.5 -10.5 11.95 L-10.9 10.65 -11.25 10.25 -11.4 10.25 -11.8 9.85 -12.65 8.95 -13.65 8.05 -15.15 5.65 -15.4 4.85 -14.95 4.2 Q-13.85 3.35 -13.7 2.35 L-13.75 1.85 -13.95 1.45 -14.0 0.2 Q-13.6 -0.75 -13.0 -1.05 -12.55 -1.25 -11.35 -0.4 -11.0 -0.15 -10.7 0.7 L-9.9 2.45 -8.8 3.85 -7.3 5.1 -6.25 5.9 -4.65 6.55 -0.65 7.15 2.8 7.0 3.25 7.1 3.15 10.0 3.2 10.0 3.15 10.25 Q3.05 10.75 3.2 10.75 L3.25 10.75 6.2 10.0 6.5 8.9 Q6.7 7.45 7.3 7.4 L10.85 6.8 13.3 5.8 14.25 5.35 15.15 4.75 16.25 3.7 17.45 2.35 18.25 1.25 18.85 -0.1 18.9 -0.35 18.9 -0.55 19.05 -0.75 19.45 -1.05 20.35 -1.6 21.15 -1.9 Q21.5 -1.95 21.65 -1.55" fill="#050505" fill-rule="evenodd" stroke="none"/>
      <path d="M21.05 -0.55 Q21.2 0.25 21.0 0.85 L18.45 3.4 17.15 4.7 15.4 6.1 14.6 6.7 13.6 7.1 11.8 7.95 9.0 8.85 6.95 9.35 Q6.3 10.2 6.05 10.2 L5.4 10.15 4.95 10.0 5.05 9.85 5.2 9.45 5.45 7.75 Q5.45 7.15 6.4 6.8 L10.25 5.05 Q13.2 4.25 17.3 1.3 L20.45 -1.15 Q20.9 -1.4 21.05 -0.55" fill="#d10505" fill-rule="evenodd" stroke="none"/>
      <path d="M3.8 10.3 L3.75 10.4 2.9 10.5 Q2.3 9.4 2.0 9.4 0.55 9.4 -1.45 8.55 L-5.85 6.55 -9.2 4.55 -11.25 3.15 -11.95 2.35 Q-13.3 -0.25 -12.9 -0.4 -12.1 -0.65 -9.6 1.5 L-8.05 2.65 Q-5.85 4.1 -2.5 5.0 L2.15 6.7 3.35 7.05 Q3.65 7.25 3.35 8.0 L3.8 10.3" fill="#d10505" fill-rule="evenodd" stroke="none"/>
      <path d="M21.05 -0.7 L21.25 -0.15 Q21.6 0.4 21.95 2.35 L22.85 2.8 Q23.2 3.0 23.1 3.65 L22.95 4.25 22.9 4.8 22.6 5.8 Q22.4 6.2 21.8 6.1 L20.8 5.9 20.5 5.95 Q19.5 8.85 19.35 9.9 L18.4 13.75 18.3 14.15 18.25 14.6 18.0 16.5 18.1 18.45 18.0 20.25 Q17.9 21.3 17.1 21.5 L15.25 22.0 Q11.9 23.2 6.85 23.35 L2.6 23.5 0.75 23.35 Q0.4 22.15 -0.1 21.85 L-3.5 21.85 -7.0 22.05 -8.65 21.9 Q-9.3 21.65 -9.4 20.9 L-9.55 14.85 -12.15 6.35 -12.25 6.4 -13.05 6.7 -13.65 6.0 -14.05 5.1 Q-14.3 4.55 -13.8 4.25 L-12.8 3.5 -12.45 2.9 -12.6 2.5 -13.1 0.3 Q-13.0 -0.6 -11.15 1.0 L-8.95 3.05 -5.4 4.9 -1.8 6.1 2.65 7.75 2.8 10.55 5.95 10.45 6.25 7.75 Q6.3 7.35 11.95 5.45 12.65 5.25 15.6 3.55 L17.35 2.45 21.05 -0.7" fill="#ffffff" fill-rule="evenodd" stroke="none"/>
      <path d="M9.4 10.35 L10.55 12.15 Q10.9 12.75 11.55 15.9 12.15 18.7 11.9 21.8 L11.85 23.15 10.05 23.4 8.9 23.45 8.2 23.4 Q7.55 22.95 7.15 22.9 L5.55 22.9 3.85 22.45 1.7 22.0 -0.6 22.0 -1.2 21.95 -1.75 22.0 -2.2 21.9 -2.15 21.7 -2.2 21.85 -2.1 21.5 -2.2 21.05 -2.25 20.05 -2.4 17.25 -2.25 14.25 Q-2.25 11.6 -1.1 10.9 -0.05 10.2 2.9 10.2 L6.8 10.2 9.4 10.35" fill="#969696" fill-rule="evenodd" stroke="none"/>
      <path d="M10.85 12.3 L10.8 17.4 11.0 19.15 11.3 22.0 11.45 23.0 11.4 23.05 -1.6 22.05 -1.55 21.85 Q-1.25 21.5 -1.6 14.9 L-1.75 13.1 -1.8 11.8 Q-1.8 10.65 -1.3 10.55 L2.45 10.1 4.55 9.95 8.7 10.1 Q9.9 10.2 10.45 10.6 10.85 10.95 10.85 12.3" fill="#d10505" fill-rule="evenodd" stroke="none"/>
      <path d="M9.4 10.65 Q10.05 10.85 10.2 11.9 L10.3 13.65 10.2 15.45 10.45 19.45 10.65 21.4 10.65 22.35 10.7 22.7 10.65 23.0 10.55 23.0 10.6 22.95 9.85 22.85 8.75 22.95 5.7 23.25 2.6 23.35 1.8 23.4 1.0 23.25 0.55 22.8 0.25 22.35 0.2 22.1 0.05 21.85 0.1 21.7 -0.2 20.6 Q-0.35 18.9 -0.65 17.25 L-0.8 13.35 -0.75 10.85 1.3 10.75 5.2 10.55 7.3 10.55 9.4 10.65" fill="#ffffff" fill-rule="evenodd" stroke="none"/>
      <path d="M2.85 11.75 L3.3 12.0 3.7 12.4 Q4.0 12.7 4.1 13.35 L4.1 13.9 3.95 14.55 3.25 15.5 2.4 15.85 0.8 15.9 Q0.05 15.55 0.05 14.55 L0.25 12.95 -0.1 12.7 -0.25 12.65 -0.35 12.65 -0.15 12.3 0.3 11.9 Q1.2 11.45 1.9 11.45 2.5 11.45 2.85 11.75" fill="#7c7c7c" fill-rule="evenodd" stroke="none"/>
      <path d="M3.3 13.85 Q3.3 15.8 1.35 15.8 -0.6 15.8 -0.6 13.85 -0.6 11.9 1.35 11.9 3.3 11.9 3.3 13.85" fill="#ffffff" fill-rule="evenodd" stroke="none"/>
      <path d="M3.3 13.85 Q3.3 15.8 1.35 15.8 -0.6 15.8 -0.6 13.85 -0.6 11.9 1.35 11.9 3.3 11.9 3.3 13.85 Z" fill="none" stroke="#7c7c7c" stroke-linecap="round" stroke-linejoin="round" stroke-width="0.25"/>
      <path d="M0.35 18.55 L0.25 18.55 0.5 18.15 0.95 17.8 Q1.75 17.35 2.5 17.35 L3.5 17.6 3.95 17.9 4.35 18.25 4.7 19.25 4.75 19.8 4.6 20.4 3.9 21.35 3.0 21.75 1.4 21.8 Q0.7 21.45 0.7 20.45 L0.9 18.85 0.5 18.55 0.35 18.55" fill="#7c7c7c" fill-rule="evenodd" stroke="none"/>
      <path d="M3.9 19.7 Q3.9 21.65 1.95 21.65 0.0 21.65 0.0 19.7 0.0 17.75 1.95 17.75 3.9 17.75 3.9 19.7" fill="#ffffff" fill-rule="evenodd" stroke="none"/>
      <path d="M3.9 19.7 Q3.9 21.65 1.95 21.65 0.0 21.65 0.0 19.7 0.0 17.75 1.95 17.75 3.9 17.75 3.9 19.7 Z" fill="none" stroke="#7c7c7c" stroke-linecap="round" stroke-linejoin="round" stroke-width="0.25"/>
      <path d="M5.65 18.55 L5.85 18.15 6.3 17.8 7.9 17.35 8.85 17.6 9.3 17.9 9.7 18.25 10.1 19.25 10.1 19.8 9.95 20.4 9.25 21.35 8.4 21.75 6.8 21.8 Q6.05 21.45 6.05 20.45 L6.25 18.85 Q6.25 18.65 5.9 18.55 L5.75 18.55 5.65 18.55" fill="#7c7c7c" fill-rule="evenodd" stroke="none"/>
      <path d="M9.3 19.7 Q9.3 21.65 7.35 21.65 5.4 21.65 5.4 19.7 5.4 17.75 7.35 17.75 9.3 17.75 9.3 19.7" fill="#ffffff" fill-rule="evenodd" stroke="none"/>
      <path d="M9.3 19.7 Q9.3 21.65 7.35 21.65 5.4 21.65 5.4 19.7 5.4 17.75 7.35 17.75 9.3 17.75 9.3 19.7 Z" fill="none" stroke="#7c7c7c" stroke-linecap="round" stroke-linejoin="round" stroke-width="0.25"/>
      <path d="M9.7 12.25 L10.1 13.25 10.1 13.8 9.95 14.4 9.25 15.35 8.4 15.75 6.8 15.8 Q6.05 15.45 6.05 14.45 L6.25 12.85 Q6.25 12.65 5.9 12.55 L5.75 12.55 5.65 12.55 5.85 12.15 6.3 11.8 7.9 11.35 8.85 11.6 9.3 11.9 9.7 12.25" fill="#7c7c7c" fill-rule="evenodd" stroke="none"/>
      <path d="M9.3 13.7 Q9.3 15.65 7.35 15.65 5.4 15.65 5.4 13.7 5.4 11.75 7.35 11.75 9.3 11.75 9.3 13.7" fill="#ffffff" fill-rule="evenodd" stroke="none"/>
      <path d="M9.3 13.7 Q9.3 15.65 7.35 15.65 5.4 15.65 5.4 13.7 5.4 11.75 7.35 11.75 9.3 11.75 9.3 13.7 Z" fill="none" stroke="#7c7c7c" stroke-linecap="round" stroke-linejoin="round" stroke-width="0.25"/>
      <path d="M22.1 5.15 Q22.8 5.85 22.2 8.4 21.9 9.6 19.65 12.1 19.0 12.85 19.0 14.25 19.0 15.95 18.8 16.45 18.7 16.65 18.3 16.65 16.45 16.65 15.55 13.45 15.1 11.95 15.7 9.55 15.95 8.35 17.3 6.55 18.5 5.05 19.4 4.9 21.5 4.55 22.1 5.15" fill="#bab9b9" fill-rule="evenodd" stroke="none"/>
      <path d="M-6.05 9.55 Q-5.4 12.0 -5.9 13.4 -6.95 16.6 -9.25 16.6 L-9.9 16.4 -9.9 15.35 -10.15 13.25 -10.6 11.95 -11.8 9.0 -12.25 7.95 -12.1 6.0 -11.7 4.35 -11.15 4.25 -10.35 4.6 -8.05 6.5 Q-6.5 8.15 -6.05 9.55" fill="#bab9b9" fill-rule="evenodd" stroke="none"/>
      <path d="M0.4 23.35 L0.2 22.85 -0.05 22.45 -0.2 22.05 Q-0.35 21.85 -0.65 21.85 L-0.95 21.85 -1.2 21.8 -0.75 21.65 -0.5 21.6 -0.3 21.55 0.0 21.75 0.35 22.05 0.7 22.65 1.05 23.0 1.85 23.1 9.3 22.75 10.65 22.45 10.5 22.5 10.95 22.6 11.35 22.9 11.4 22.9 11.05 23.25 5.05 23.65 1.75 23.8 0.65 23.7 0.4 23.35" fill="#d10505" fill-rule="evenodd" stroke="none"/>
      <path d="M21.4 1.6 L20.05 3.05 18.15 4.85 14.75 6.95 11.65 8.3 6.15 9.8 6.1 9.8 6.1 9.7 6.15 9.5 6.15 9.0 6.35 9.1 6.6 9.1 7.5 9.0 8.75 8.7 9.45 8.4 10.3 8.15 13.6 6.75 17.7 4.0 19.1 2.8 20.6 1.25 20.95 0.65 21.2 0.3 21.3 0.65 21.45 1.05 21.5 1.35 21.35 1.6 21.4 1.6" fill="#969696" fill-rule="evenodd" stroke="none"/>
      <path d="M1.95 10.1 L-2.05 9.45 -3.15 9.05 -4.4 8.4 -7.55 7.0 Q-8.45 6.45 -8.95 6.25 L-13.25 3.95 -12.7 3.45 -12.6 3.05 -12.8 2.7 -12.65 2.75 -12.3 3.15 -11.4 3.95 -7.65 6.25 -5.75 7.15 -1.95 8.55 2.35 9.55 2.55 9.55 2.55 9.8 2.6 10.1 1.95 10.1" fill="#969696" fill-rule="evenodd" stroke="none"/>
    </g>
  </defs>
</svg>
